X:190 
T:Sally's Broomstick* 
S:Grier MS
F:file ID: cre.4/190sallys
B:CRE4.029: gan ainm
L:1/8
Q:160
M:9/8
R:slip jig
K:D % source key G
A2A BAG A2G|FGA BGB cAG|FGA BAG A2g|fed ded cBA:|
cde efd e2d|cde fdf ged|cde efd efg|fed ded cBA|
cde efd e2d|cde fdf ged|cde efd efg|a2d ded cBA |]


